public/library/polygonscan-text-light.svg

<svg width="786" height="121" viewBox="0 0 786 121" fill="none" xmlns="http://www.w3.org/2000/svg">
<path d="M167.037 109.455V34.4545H181.952V43.6165H182.627C183.289 42.1487 184.248 40.6572 185.503 39.142C186.781 37.6032 188.439 36.3248 190.475 35.3068C192.534 34.2651 195.091 33.7443 198.145 33.7443C202.122 33.7443 205.792 34.786 209.154 36.8693C212.515 38.929 215.202 42.0421 217.215 46.2088C219.227 50.3518 220.233 55.5483 220.233 61.7983C220.233 67.8826 219.251 73.0199 217.286 77.2102C215.344 81.3769 212.693 84.5374 209.331 86.6918C205.993 88.8224 202.253 89.8878 198.11 89.8878C195.174 89.8878 192.676 89.4025 190.617 88.4318C188.581 87.4612 186.912 86.2419 185.61 84.7741C184.307 83.2827 183.313 81.7793 182.627 80.2642H182.165V109.455H167.037ZM181.845 61.7273C181.845 64.9706 182.295 67.7997 183.195 70.2145C184.094 72.6293 185.396 74.5114 187.101 75.8608C188.806 77.1865 190.877 77.8494 193.316 77.8494C195.778 77.8494 197.861 77.1747 199.566 75.8253C201.27 74.4522 202.56 72.5582 203.436 70.1435C204.336 67.705 204.786 64.8996 204.786 61.7273C204.786 58.5786 204.348 55.8087 203.472 53.4176C202.596 51.0265 201.306 49.1562 199.601 47.8068C197.896 46.4574 195.801 45.7827 193.316 45.7827C190.853 45.7827 188.77 46.4337 187.066 47.7358C185.385 49.0379 184.094 50.8845 183.195 53.2756C182.295 55.6667 181.845 58.4839 181.845 61.7273Z" fill="#22143D"/>
<path d="M254.963 90.0653C249.447 90.0653 244.677 88.8935 240.652 86.5497C236.651 84.1823 233.562 80.8916 231.384 76.6776C229.206 72.4399 228.117 67.5275 228.117 61.9403C228.117 56.3059 229.206 51.3816 231.384 47.1676C233.562 42.9299 236.651 39.6392 240.652 37.2954C244.677 34.928 249.447 33.7443 254.963 33.7443C260.479 33.7443 265.238 34.928 269.239 37.2954C273.263 39.6392 276.365 42.9299 278.543 47.1676C280.721 51.3816 281.81 56.3059 281.81 61.9403C281.81 67.5275 280.721 72.4399 278.543 76.6776C276.365 80.8916 273.263 84.1823 269.239 86.5497C265.238 88.8935 260.479 90.0653 254.963 90.0653ZM255.034 78.3466C257.544 78.3466 259.639 77.6364 261.32 76.2159C263.001 74.7718 264.267 72.8068 265.119 70.321C265.995 67.8352 266.433 65.0061 266.433 61.8338C266.433 58.6615 265.995 55.8324 265.119 53.3466C264.267 50.8608 263.001 48.8958 261.32 47.4517C259.639 46.0076 257.544 45.2855 255.034 45.2855C252.501 45.2855 250.37 46.0076 248.642 47.4517C246.938 48.8958 245.647 50.8608 244.771 53.3466C243.919 55.8324 243.493 58.6615 243.493 61.8338C243.493 65.0061 243.919 67.8352 244.771 70.321C245.647 72.8068 246.938 74.7718 248.642 76.2159C250.37 77.6364 252.501 78.3466 255.034 78.3466Z" fill="#22143D"/>
<path d="M306.774 16.2727V89H291.646V16.2727H306.774Z" fill="#22143D"/>
<path d="M328.232 109.455C326.314 109.455 324.515 109.301 322.834 108.993C321.177 108.709 319.804 108.342 318.715 107.892L322.124 96.5994C323.9 97.1439 325.498 97.4399 326.918 97.4872C328.362 97.5346 329.605 97.2031 330.647 96.4929C331.712 95.7827 332.576 94.5753 333.239 92.8707L334.127 90.5625L314.56 34.4545H330.469L341.762 74.5114H342.33L353.729 34.4545H369.745L348.545 94.8949C347.527 97.8305 346.142 100.387 344.39 102.565C342.662 104.767 340.472 106.46 337.82 107.643C335.169 108.851 331.973 109.455 328.232 109.455Z" fill="#22143D"/>
<path d="M400.302 110.591C395.402 110.591 391.2 109.916 387.696 108.567C384.216 107.241 381.446 105.43 379.386 103.134C377.327 100.837 375.989 98.2566 375.373 95.392L389.365 93.5099C389.791 94.599 390.466 95.6169 391.389 96.5639C392.312 97.5109 393.532 98.2685 395.047 98.8366C396.586 99.4285 398.456 99.7244 400.657 99.7244C403.948 99.7244 406.659 98.9195 408.79 97.3097C410.944 95.7235 412.021 93.0601 412.021 89.3196V79.3409H411.382C410.719 80.8561 409.725 82.2883 408.399 83.6378C407.073 84.9872 405.369 86.0881 403.285 86.9403C401.202 87.7926 398.716 88.2187 395.828 88.2187C391.732 88.2187 388.004 87.2718 384.642 85.3778C381.304 83.4602 378.64 80.5365 376.652 76.6065C374.687 72.6529 373.704 67.6577 373.704 61.6207C373.704 55.4418 374.711 50.2808 376.723 46.1378C378.735 41.9948 381.41 38.8935 384.748 36.8338C388.11 34.7741 391.791 33.7443 395.792 33.7443C398.846 33.7443 401.403 34.2651 403.463 35.3068C405.523 36.3248 407.18 37.6032 408.434 39.142C409.713 40.6572 410.695 42.1487 411.382 43.6165H411.95V34.4545H426.971V89.5327C426.971 94.1728 425.835 98.0554 423.562 101.18C421.29 104.305 418.141 106.649 414.116 108.212C410.115 109.798 405.511 110.591 400.302 110.591ZM400.622 76.8551C403.06 76.8551 405.12 76.2514 406.801 75.044C408.506 73.813 409.808 72.0611 410.707 69.7883C411.631 67.4919 412.092 64.7457 412.092 61.5497C412.092 58.3537 411.642 55.5838 410.743 53.2401C409.843 50.8726 408.541 49.0379 406.836 47.7358C405.132 46.4337 403.06 45.7827 400.622 45.7827C398.136 45.7827 396.041 46.4574 394.336 47.8068C392.632 49.1326 391.342 50.9792 390.466 53.3466C389.59 55.714 389.152 58.4484 389.152 61.5497C389.152 64.6984 389.59 67.4209 390.466 69.7173C391.365 71.9901 392.656 73.7538 394.336 75.0085C396.041 76.2396 398.136 76.8551 400.622 76.8551Z" fill="#22143D"/>
<path d="M463.655 90.0653C458.139 90.0653 453.368 88.8935 449.344 86.5497C445.343 84.1823 442.253 80.8916 440.075 76.6776C437.897 72.4399 436.808 67.5275 436.808 61.9403C436.808 56.3059 437.897 51.3816 440.075 47.1676C442.253 42.9299 445.343 39.6392 449.344 37.2954C453.368 34.928 458.139 33.7443 463.655 33.7443C469.171 33.7443 473.929 34.928 477.93 37.2954C481.955 39.6392 485.056 42.9299 487.234 47.1676C489.412 51.3816 490.501 56.3059 490.501 61.9403C490.501 67.5275 489.412 72.4399 487.234 76.6776C485.056 80.8916 481.955 84.1823 477.93 86.5497C473.929 88.8935 469.171 90.0653 463.655 90.0653ZM463.726 78.3466C466.235 78.3466 468.33 77.6364 470.011 76.2159C471.692 74.7718 472.959 72.8068 473.811 70.321C474.687 67.8352 475.125 65.0061 475.125 61.8338C475.125 58.6615 474.687 55.8324 473.811 53.3466C472.959 50.8608 471.692 48.8958 470.011 47.4517C468.33 46.0076 466.235 45.2855 463.726 45.2855C461.193 45.2855 459.062 46.0076 457.334 47.4517C455.629 48.8958 454.339 50.8608 453.463 53.3466C452.611 55.8324 452.184 58.6615 452.184 61.8338C452.184 65.0061 452.611 67.8352 453.463 70.321C454.339 72.8068 455.629 74.7718 457.334 76.2159C459.062 77.6364 461.193 78.3466 463.726 78.3466Z" fill="#22143D"/>
<path d="M515.466 57.4659V89H500.338V34.4545H514.755V44.0781H515.395C516.602 40.9058 518.626 38.3963 521.467 36.5497C524.308 34.6794 527.753 33.7443 531.801 33.7443C535.589 33.7443 538.891 34.5729 541.709 36.2301C544.526 37.8873 546.716 40.2547 548.278 43.3324C549.841 46.3864 550.622 50.0322 550.622 54.2699V89H535.494V56.9687C535.518 53.6307 534.666 51.0265 532.937 49.1562C531.209 47.2623 528.83 46.3153 525.8 46.3153C523.764 46.3153 521.964 46.7533 520.402 47.6293C518.863 48.5052 517.656 49.7836 516.78 51.4645C515.927 53.1217 515.489 55.1222 515.466 57.4659Z" fill="#22143D"/>
<path d="M607.928 50.0085L594.079 50.8608C593.842 49.6771 593.333 48.6117 592.552 47.6648C591.771 46.6941 590.741 45.9247 589.463 45.3565C588.208 44.7647 586.704 44.4687 584.953 44.4687C582.609 44.4687 580.632 44.9659 579.022 45.9602C577.412 46.9309 576.607 48.2329 576.607 49.8665C576.607 51.1686 577.128 52.2694 578.17 53.169C579.212 54.0687 580.999 54.7907 583.532 55.3352L593.404 57.3239C598.707 58.4129 602.661 60.1648 605.265 62.5795C607.869 64.9943 609.171 68.1667 609.171 72.0966C609.171 75.6714 608.118 78.8082 606.011 81.5071C603.928 84.206 601.063 86.313 597.417 87.8281C593.795 89.3196 589.616 90.0653 584.882 90.0653C577.661 90.0653 571.908 88.562 567.623 85.5554C563.362 82.5251 560.864 78.4058 560.13 73.1974L575.009 72.4162C575.459 74.6179 576.548 76.2988 578.276 77.4588C580.005 78.5952 582.218 79.1633 584.917 79.1633C587.569 79.1633 589.699 78.6544 591.309 77.6364C592.943 76.5947 593.771 75.2571 593.795 73.6236C593.771 72.2505 593.191 71.1259 592.055 70.25C590.919 69.3504 589.167 68.6638 586.799 68.1903L577.353 66.3082C572.026 65.2429 568.061 63.3963 565.457 60.7685C562.876 58.1406 561.586 54.7907 561.586 50.7187C561.586 47.215 562.533 44.1965 564.427 41.6633C566.345 39.1302 569.032 37.1771 572.488 35.804C575.968 34.4309 580.04 33.7443 584.704 33.7443C591.593 33.7443 597.015 35.2003 600.968 38.1122C604.946 41.0241 607.266 44.9896 607.928 50.0085Z" fill="#22143D"/>
<path d="M643.342 90.0653C637.755 90.0653 632.949 88.8816 628.925 86.5142C624.924 84.1231 621.846 80.8087 619.692 76.571C617.561 72.3333 616.496 67.4564 616.496 61.9403C616.496 56.3532 617.573 51.4526 619.727 47.2386C621.905 43.0009 624.995 39.6984 628.996 37.331C632.997 34.9399 637.755 33.7443 643.271 33.7443C648.03 33.7443 652.196 34.6084 655.771 36.3366C659.346 38.0649 662.175 40.4915 664.258 43.6165C666.342 46.7415 667.49 50.411 667.703 54.625H653.427C653.025 51.9025 651.96 49.7126 650.231 48.0554C648.527 46.3745 646.29 45.5341 643.52 45.5341C641.176 45.5341 639.128 46.1733 637.376 47.4517C635.648 48.7064 634.299 50.5412 633.328 52.956C632.357 55.3707 631.872 58.2945 631.872 61.7273C631.872 65.2074 632.345 68.1667 633.292 70.6051C634.263 73.0436 635.624 74.902 637.376 76.1804C639.128 77.4588 641.176 78.098 643.52 78.098C645.248 78.098 646.799 77.7429 648.172 77.0327C649.568 76.3224 650.717 75.2926 651.616 73.9432C652.54 72.5701 653.143 70.9247 653.427 69.0071H667.703C667.466 73.1738 666.33 76.8433 664.294 80.0156C662.282 83.1643 659.5 85.6264 655.949 87.402C652.398 89.1776 648.195 90.0653 643.342 90.0653Z" fill="#22143D"/>
<path d="M692.943 90.0298C689.463 90.0298 686.361 89.4261 683.639 88.2187C680.916 86.9877 678.762 85.1766 677.176 82.7855C675.613 80.3707 674.832 77.3641 674.832 73.7656C674.832 70.7353 675.388 68.1903 676.501 66.1307C677.614 64.071 679.129 62.4138 681.046 61.1591C682.964 59.9043 685.142 58.9574 687.58 58.3182C690.043 57.679 692.623 57.2292 695.322 56.9687C698.494 56.6373 701.051 56.3295 702.992 56.0454C704.934 55.7377 706.342 55.2879 707.218 54.696C708.094 54.1042 708.532 53.2282 708.532 52.0682V51.8551C708.532 49.6061 707.822 47.866 706.401 46.6349C705.005 45.4039 703.016 44.7883 700.436 44.7883C697.713 44.7883 695.547 45.392 693.937 46.5994C692.327 47.7831 691.262 49.2746 690.741 51.0739L676.749 49.9375C677.46 46.6231 678.856 43.7585 680.94 41.3437C683.023 38.9053 685.71 37.035 689.001 35.7329C692.315 34.4072 696.151 33.7443 700.507 33.7443C703.537 33.7443 706.437 34.0994 709.207 34.8097C712 35.5199 714.474 36.6207 716.629 38.1122C718.807 39.6037 720.523 41.5213 721.778 43.8651C723.033 46.1851 723.66 48.9668 723.66 52.2102V89H709.313V81.4361H708.887C708.011 83.1406 706.839 84.6439 705.372 85.946C703.904 87.2244 702.14 88.2306 700.08 88.9645C698.021 89.6747 695.641 90.0298 692.943 90.0298ZM697.275 79.5895C699.5 79.5895 701.465 79.1515 703.17 78.2756C704.874 77.3759 706.212 76.1686 707.183 74.6534C708.153 73.1383 708.639 71.4219 708.639 69.5043V63.7159C708.165 64.0237 707.514 64.3078 706.686 64.5682C705.881 64.8049 704.969 65.0298 703.951 65.2429C702.933 65.4323 701.915 65.6098 700.897 65.7756C699.879 65.9176 698.956 66.0478 698.127 66.1662C696.352 66.4266 694.801 66.8409 693.475 67.4091C692.15 67.9773 691.12 68.7467 690.386 69.7173C689.652 70.6643 689.285 71.848 689.285 73.2685C689.285 75.3281 690.031 76.9025 691.522 77.9915C693.037 79.0568 694.955 79.5895 697.275 79.5895Z" fill="#22143D"/>
<path d="M750.524 57.4659V89H735.396V34.4545H749.814V44.0781H750.453C751.661 40.9058 753.685 38.3963 756.526 36.5497C759.367 34.6794 762.811 33.7443 766.86 33.7443C770.647 33.7443 773.95 34.5729 776.767 36.2301C779.584 37.8873 781.774 40.2547 783.337 43.3324C784.899 46.3864 785.681 50.0322 785.681 54.2699V89H770.553V56.9687C770.576 53.6307 769.724 51.0265 767.996 49.1562C766.268 47.2623 763.888 46.3153 760.858 46.3153C758.822 46.3153 757.023 46.7533 755.46 47.6293C753.922 48.5052 752.714 49.7836 751.838 51.4645C750.986 53.1217 750.548 55.1222 750.524 57.4659Z" fill="#22143D"/>
<path d="M101.717 85.2154L134.212 66.5068C135.931 65.5161 137 63.6714 137 61.6902V24.2671C137 22.2888 135.931 20.4411 134.212 19.4505L101.717 0.741882C99.9986 -0.248746 97.8605 -0.245841 96.1418 0.741882L63.6469 19.4505C61.9282 20.4411 60.8591 22.2859 60.8591 24.2671V91.1388L38.0734 104.255L15.2876 91.1388V64.8974L38.0734 51.781L53.1046 60.4323V42.8305L40.8611 35.7828C40.0163 35.2976 39.0521 35.042 38.0734 35.042C37.0946 35.042 36.1304 35.2976 35.2856 35.7828L2.78777 54.4943C1.06908 55.485 0 57.3297 0 59.3109V96.7311C0 98.7094 1.06908 100.557 2.78777 101.548L35.2827 120.259C37.0014 121.247 39.1366 121.247 40.8582 120.259L73.3531 101.551C75.0718 100.56 76.1409 98.7123 76.1409 96.734V29.8623L76.5516 29.627L98.9266 16.7459L121.712 29.8652V56.1037L98.9266 69.223L83.9187 60.5833V78.1851L96.1389 85.2241C97.8576 86.2118 99.9957 86.2118 101.714 85.2241L101.717 85.2154Z" fill="url(#paint0_linear_4864_1917)"/>
<defs>
<linearGradient id="paint0_linear_4864_1917" x1="11.6463" y1="101.841" x2="129.167" y2="15.9136" gradientUnits="userSpaceOnUse">
<stop stop-color="#A726C1"/>
<stop offset="0.88" stop-color="#803BDF"/>
<stop offset="1" stop-color="#7B3FE4"/>
</linearGradient>
</defs>
</svg>

<svg xmlns="http://www.w3.org/2000/svg" width="786" height="121" fill="none" viewBox="0 0 786 121"><path fill="#22143d" d="M167.037 109.455v-75h14.915v9.162h.675q.993-2.202 2.876-4.475 1.918-2.308 4.972-3.835 3.089-1.563 7.67-1.563 5.966 0 11.009 3.125 5.041 3.09 8.061 9.34 3.018 6.215 3.018 15.59 0 9.125-2.947 15.411-2.913 6.25-7.955 9.482-5.007 3.196-11.221 3.196-4.404 0-7.493-1.456-3.054-1.456-5.007-3.658-1.954-2.237-2.983-4.51h-.462v29.191zm14.808-47.728q0 4.866 1.35 8.488 1.349 3.621 3.906 5.646 2.557 1.988 6.215 1.988 3.693 0 6.25-2.024 2.556-2.06 3.87-5.681 1.35-3.658 1.35-8.417 0-4.722-1.314-8.31-1.314-3.585-3.871-5.61t-6.285-2.024q-3.694 0-6.25 1.953-2.522 1.953-3.871 5.54t-1.35 8.451M254.963 90.065q-8.274 0-14.311-3.515-6.001-3.552-9.268-9.872-3.267-6.356-3.267-14.738 0-8.451 3.267-14.772 3.267-6.357 9.268-9.873 6.037-3.55 14.311-3.55t14.276 3.55q6.036 3.516 9.304 9.873 3.267 6.321 3.267 14.772 0 8.381-3.267 14.738-3.267 6.32-9.304 9.872-6.002 3.516-14.276 3.515m.071-11.718q3.765 0 6.286-2.131 2.521-2.167 3.799-5.895 1.314-3.729 1.314-8.487 0-4.76-1.314-8.487-1.278-3.729-3.799-5.895t-6.286-2.166q-3.8 0-6.392 2.166-2.556 2.166-3.871 5.895-1.278 3.727-1.278 8.487 0 4.758 1.278 8.487 1.315 3.728 3.871 5.895 2.592 2.13 6.392 2.13M306.774 16.273V89h-15.128V16.273zM328.232 109.455q-2.877 0-5.398-.462-2.485-.426-4.119-1.101l3.409-11.293q2.664.817 4.794.888 2.166.071 3.729-.994 1.597-1.066 2.592-3.622l.888-2.308-19.567-56.108h15.909l11.293 40.056h.568l11.399-40.056h16.016l-21.2 60.44q-1.527 4.403-4.155 7.67-2.592 3.303-6.57 5.078-3.976 1.812-9.588 1.812M400.302 110.591q-7.35 0-12.606-2.024-5.22-1.989-8.31-5.433-3.089-3.445-4.013-7.742l13.992-1.882q.64 1.633 2.024 3.054 1.385 1.42 3.658 2.273 2.308.887 5.61.887 4.937 0 8.133-2.414 3.231-2.38 3.231-7.99v-9.98h-.639q-.994 2.273-2.983 4.298t-5.114 3.302q-3.125 1.28-7.457 1.279-6.144 0-11.186-2.841-5.008-2.876-7.99-8.772-2.948-5.93-2.948-14.985 0-9.27 3.019-15.483 3.018-6.214 8.025-9.304 5.043-3.09 11.044-3.09 4.581 0 7.671 1.563 3.09 1.527 4.971 3.835 1.918 2.273 2.948 4.474h.568v-9.161h15.021v55.078q0 6.96-3.409 11.647t-9.446 7.032q-6.001 2.379-13.814 2.379m.32-33.736q3.657 0 6.179-1.811 2.558-1.846 3.906-5.256 1.385-3.444 1.385-8.238t-1.349-8.31q-1.35-3.55-3.907-5.504t-6.214-1.953q-3.729 0-6.286 2.024-2.556 1.988-3.87 5.54-1.314 3.55-1.314 8.203 0 4.722 1.314 8.167 1.35 3.41 3.87 5.291 2.557 1.847 6.286 1.847M463.655 90.065q-8.274 0-14.311-3.515-6.002-3.552-9.269-9.872-3.267-6.356-3.267-14.738 0-8.451 3.267-14.772 3.267-6.357 9.269-9.873 6.036-3.55 14.311-3.55 8.274 0 14.275 3.55 6.037 3.516 9.304 9.873 3.267 6.321 3.267 14.772 0 8.381-3.267 14.738-3.267 6.32-9.304 9.872-6.001 3.516-14.275 3.515m.071-11.718q3.764 0 6.285-2.131 2.522-2.167 3.8-5.895 1.314-3.729 1.314-8.487 0-4.76-1.314-8.487-1.278-3.729-3.8-5.895t-6.285-2.166q-3.8 0-6.392 2.166-2.557 2.166-3.871 5.895-1.278 3.727-1.279 8.487 0 4.758 1.279 8.487 1.314 3.728 3.871 5.895 2.592 2.13 6.392 2.13M515.466 57.466V89h-15.128V34.455h14.417v9.623h.64q1.81-4.759 6.072-7.528 4.262-2.805 10.334-2.806 5.682 0 9.908 2.486t6.569 7.102q2.344 4.581 2.344 10.938V89h-15.128V56.969q.036-5.007-2.557-7.813-2.592-2.84-7.137-2.84-3.054 0-5.398 1.313-2.308 1.314-3.622 3.836-1.28 2.485-1.314 6M607.928 50.009l-13.849.852a7.16 7.16 0 0 0-1.527-3.196q-1.172-1.455-3.089-2.309-1.883-.887-4.51-.887-3.516 0-5.931 1.491-2.415 1.456-2.415 3.907 0 1.953 1.563 3.302 1.563 1.35 5.362 2.166l9.872 1.989q7.955 1.633 11.861 5.256 3.906 3.622 3.906 9.517 0 5.361-3.16 9.41-3.125 4.049-8.594 6.321-5.433 2.237-12.535 2.237-10.832 0-17.259-4.51-6.392-4.546-7.493-12.358l14.879-.78q.675 3.301 3.267 5.042 2.593 1.704 6.641 1.704 3.978 0 6.392-1.527 2.45-1.562 2.486-4.012-.036-2.06-1.74-3.374-1.704-1.35-5.256-2.06l-9.446-1.882q-7.99-1.598-11.896-5.54-3.871-3.94-3.871-10.05 0-5.255 2.841-9.055 2.877-3.8 8.061-5.859 5.22-2.06 12.216-2.06 10.334 0 16.264 4.368 5.967 4.368 6.96 11.896M643.342 90.065q-8.38 0-14.417-3.55-6.002-3.588-9.233-9.944-3.196-6.357-3.196-14.63 0-8.382 3.231-14.702 3.267-6.356 9.269-9.908 6.001-3.587 14.275-3.587 7.138 0 12.5 2.593t8.487 7.28 3.445 11.008h-14.276q-.603-4.083-3.196-6.57-2.556-2.52-6.711-2.52-3.516 0-6.144 1.917-2.592 1.882-4.048 5.504t-1.456 8.771q0 5.22 1.42 8.878 1.456 3.658 4.084 5.575t6.144 1.918q2.592 0 4.652-1.065 2.095-1.065 3.444-3.09 1.385-2.06 1.811-4.936h14.276q-.355 6.25-3.409 11.009-3.018 4.722-8.345 7.386t-12.607 2.663M692.943 90.03q-5.22 0-9.304-1.811-4.084-1.847-6.463-5.433-2.344-3.623-2.344-9.02 0-4.546 1.669-7.635 1.67-3.09 4.545-4.972 2.877-1.883 6.534-2.84a50 50 0 0 1 7.742-1.35q4.758-.498 7.67-.924 2.912-.46 4.226-1.349 1.314-.888 1.314-2.628v-.213q0-3.373-2.131-5.22-2.095-1.847-5.965-1.847-4.084 0-6.499 1.811-2.415 1.776-3.196 4.475l-13.992-1.136q1.066-4.973 4.191-8.594 3.124-3.658 8.061-5.611 4.971-1.989 11.506-1.989 4.545 0 8.7 1.066 4.19 1.065 7.422 3.302a16.05 16.05 0 0 1 5.149 5.753q1.882 3.48 1.882 8.345V89h-14.347v-7.564h-.426a15.4 15.4 0 0 1-3.515 4.51q-2.202 1.918-5.292 3.019-3.09 1.065-7.137 1.065m4.332-10.44q3.337 0 5.895-1.314 2.556-1.35 4.013-3.623 1.455-2.272 1.456-5.149v-5.788q-.711.462-1.953.852-1.208.355-2.735.675-1.527.284-3.054.533-1.527.213-2.77.39-2.663.39-4.652 1.243-1.988.852-3.089 2.308-1.101 1.42-1.101 3.552 0 3.09 2.237 4.722 2.273 1.599 5.753 1.599M750.524 57.466V89h-15.128V34.455h14.418v9.623h.639q1.812-4.759 6.073-7.528 4.261-2.805 10.334-2.806 5.681 0 9.907 2.486t6.57 7.102q2.344 4.581 2.344 10.938V89h-15.128V56.969q.035-5.007-2.557-7.813-2.592-2.84-7.138-2.84-3.054 0-5.398 1.313-2.308 1.314-3.622 3.836-1.278 2.485-1.314 6"/><path fill="url(#a)" d="m101.717 85.215 32.495-18.708A5.58 5.58 0 0 0 137 61.69V24.267a5.58 5.58 0 0 0-2.788-4.816L101.717.74a5.61 5.61 0 0 0-5.575 0l-32.495 18.71a5.58 5.58 0 0 0-2.788 4.816V91.14l-22.786 13.116-22.785-13.116V64.897l22.785-13.116 15.032 8.651V42.831L40.86 35.783a5.6 5.6 0 0 0-2.788-.741c-.978 0-1.943.256-2.787.74L2.788 54.495A5.58 5.58 0 0 0 0 59.311v37.42a5.58 5.58 0 0 0 2.788 4.817l32.495 18.711a5.61 5.61 0 0 0 5.575 0l32.495-18.708a5.58 5.58 0 0 0 2.788-4.817V29.862l.41-.235 22.376-12.881 22.785 13.12v26.238L98.927 69.223l-15.008-8.64v17.602l12.22 7.04a5.62 5.62 0 0 0 5.575 0z"/><defs><linearGradient id="a" x1="11.646" x2="129.167" y1="101.841" y2="15.914" gradientUnits="userSpaceOnUse"><stop stop-color="#a726c1"/><stop offset=".88" stop-color="#803bdf"/><stop offset="1" stop-color="#7b3fe4"/></linearGradient></defs></svg>
